X: 1
T:Gisburn Processional
M:6/8
L:1/8
K:G
d2c||B2B BAB|d2B BAB|c2e g2e|d2B BAB|c2A AGA|B2G G2F|E2e d2c|B2G G2||d|d
2c Bcd|e2f g2a|b2a gfe|d2B Bcd|e2e ecA|d2d dBG|c2A B2G|F2A d2c|B2B BAB|d
2B BAB|c2e g2e|d2B BAB|c2A AGA|B2G G2F|E2e d2c|B2G G2||
